X:1
T:Title
%%score 1 ( 2 3 )
L:1/8
Q:1/4=160
M:3/4
K:D
V:1 treble nm="Grand Piano, Soprano"
V:2 bass nm="Choir Pad, Bass"
V:3 bass 
V:1
 [DF]4 [DF]2 | [DF]4 [DG]2 | [CE]4 [CE]2 | [CE]6 | [EG]4 [EG]2 | [EG]4 [EA]2 | [DF]6- | [DF]6 | %8
w: By~E.~E.~Pickard *||||||||
 [GB]4 [GB]2 | [FA]4 [FA]2 | [EG]4 [EG]2 | [DF]6 | [DE]4 [DE]2 | [DF]4 [DE]2 | [CE]6 | [GA]6 | %16
w: ||||||||
 [Fd]4 [FA]2 | [Gc]4 [GB]2 | [FA]4 [EG]2 | [DF]6 | [EG]4 [EB]2 | [Ge]4 [^Gd]2 | [Ac]4 [^GB]2 | %23
w: |||||||
 [GA]6 | [Fd]4 [Fd]2 | [Ec]4 [EG]2 | [Gc]4 [GB]2 | [FA]6 | [GB]4 [Ge]2 | [FA]4 [Fd]2 | %30
w: |||||||
 [Gd]4 [Gc]2 | [Fd]6- | [Fd]2 z2 z2 |] %33
w: |||
V:2
 [D,A,]4 [D,A,]2 | [D,A,]4 [D,A,]2 | [A,,A,]4 [A,,A,]2 | [A,,A,]6 | [A,,A,]4 [B,,A,]2 | %5
 [C,A,]4 [A,,A,]2 | [D,A,]6- | [D,A,]6 | [G,D]4 [G,D]2 | [F,D]4 [F,D]2 | [E,A,]4 [A,,A,]2 | %11
 [D,A,]6 | [G,B,]4 [G,B,]2 | [^G,B,]4 [G,B,]2 | z6 | C6 | D,4 [D,A,]2 | [D,B,]4 [D,C]2 | %18
 [D,D]4 [D,D]2 | [D,D]6 | [A,C]4 [A,C]2 | [A,C]4 [E,E]2 | [E,E]4 [E,D]2 | [A,C]6 | %24
 [D,A,]4 [D,A,]2 | [A,,A,]4 [A,,A,]2 | [A,,A,]4 [A,,A,]2 | [D,A,]6 | [G,C]4 [G,C]2 | %29
 [F,D]4 [D,D]2 | [G,B,]4 [A,C]2 | [D,D]6- | [D,D]2 z2 z2 |] %33
V:3
 x6 | x6 | x6 | x6 | x6 | x6 | x6 | x6 | x6 | x6 | x6 | x6 | x6 | x6 | A,6- | A,6 | x6 | x6 | x6 | %19
 x6 | x6 | x6 | x6 | x6 | x6 | x6 | x6 | x6 | x6 | x6 | x6 | x6 | x6 |] %33

